static/img/kroki/b7cd14f5578743cd166857f6253bc063.svg

<?xml version="1.0" encoding="us-ascii" standalone="no"?><svg xmlns="http://www.w3.org/2000/svg" xmlns:xlink="http://www.w3.org/1999/xlink" contentStyleType="text/css" height="374px" preserveAspectRatio="none" style="width:407px;height:374px;" version="1.1" viewBox="0 0 407 374" width="407px" zoomAndPan="magnify"><defs/><g><!--class aws_organizational_root--><g id="elem_aws_organizational_root"><rect codeLine="23" fill="#3D176E" height="39.7891" id="aws_organizational_root" rx="2.5" ry="2.5" style="stroke:#000D19;stroke-width:0.5;" width="246" x="67.5" y="328.58"/><ellipse cx="82.5" cy="348.4745" fill="#ADD1B2" rx="11" ry="11" style="stroke:#181818;stroke-width:1.0;"/><path d="M85.4688,354.1152 Q84.8906,354.412 84.25,354.5527 Q83.6094,354.7089 82.9063,354.7089 Q80.4063,354.7089 79.0781,353.0683 Q77.7656,351.412 77.7656,348.287 Q77.7656,345.162 79.0781,343.5058 Q80.4063,341.8495 82.9063,341.8495 Q83.6094,341.8495 84.25,342.0058 Q84.9063,342.162 85.4688,342.4589 L85.4688,345.1777 Q84.8438,344.5995 84.25,344.3339 Q83.6563,344.0527 83.0313,344.0527 Q81.6875,344.0527 81,345.1308 Q80.3125,346.1933 80.3125,348.287 Q80.3125,350.3808 81,351.4589 Q81.6875,352.5214 83.0313,352.5214 Q83.6563,352.5214 84.25,352.2558 Q84.8438,351.9745 85.4688,351.3964 L85.4688,354.1152 Z " fill="#000000"/><text fill="#D9B8FF" font-family="Helvetica" font-size="17" lengthAdjust="spacing" textLength="204" x="101.5" y="354.3598">aws_organizational_root</text></g><!--class aws_resource--><g id="elem_aws_resource"><rect codeLine="26" fill="#3D176E" height="39.7891" id="aws_resource" rx="2.5" ry="2.5" style="stroke:#000D19;stroke-width:0.5;" width="155" x="7" y="167.79"/><ellipse cx="22" cy="187.6845" fill="#ADD1B2" rx="11" ry="11" style="stroke:#181818;stroke-width:1.0;"/><path d="M24.9688,193.3252 Q24.3906,193.622 23.75,193.7627 Q23.1094,193.9189 22.4063,193.9189 Q19.9063,193.9189 18.5781,192.2783 Q17.2656,190.622 17.2656,187.497 Q17.2656,184.372 18.5781,182.7158 Q19.9063,181.0595 22.4063,181.0595 Q23.1094,181.0595 23.75,181.2158 Q24.4063,181.372 24.9688,181.6689 L24.9688,184.3877 Q24.3438,183.8095 23.75,183.5439 Q23.1563,183.2627 22.5313,183.2627 Q21.1875,183.2627 20.5,184.3408 Q19.8125,185.4033 19.8125,187.497 Q19.8125,189.5908 20.5,190.6689 Q21.1875,191.7314 22.5313,191.7314 Q23.1563,191.7314 23.75,191.4658 Q24.3438,191.1845 24.9688,190.6064 L24.9688,193.3252 Z " fill="#000000"/><text fill="#D9B8FF" font-family="Helvetica" font-size="17" lengthAdjust="spacing" textLength="113" x="41" y="193.5698">aws_resource</text></g><!--class organizational_root--><g id="elem_organizational_root"><rect codeLine="29" fill="#3D176E" height="39.7891" id="organizational_root" rx="2.5" ry="2.5" style="stroke:#000D19;stroke-width:0.5;" width="204" x="196.5" y="167.79"/><ellipse cx="211.5" cy="187.6845" fill="#ADD1B2" rx="11" ry="11" style="stroke:#181818;stroke-width:1.0;"/><path d="M214.4688,193.3252 Q213.8906,193.622 213.25,193.7627 Q212.6094,193.9189 211.9063,193.9189 Q209.4063,193.9189 208.0781,192.2783 Q206.7656,190.622 206.7656,187.497 Q206.7656,184.372 208.0781,182.7158 Q209.4063,181.0595 211.9063,181.0595 Q212.6094,181.0595 213.25,181.2158 Q213.9063,181.372 214.4688,181.6689 L214.4688,184.3877 Q213.8438,183.8095 213.25,183.5439 Q212.6563,183.2627 212.0313,183.2627 Q210.6875,183.2627 210,184.3408 Q209.3125,185.4033 209.3125,187.497 Q209.3125,189.5908 210,190.6689 Q210.6875,191.7314 212.0313,191.7314 Q212.6563,191.7314 213.25,191.4658 Q213.8438,191.1845 214.4688,190.6064 L214.4688,193.3252 Z " fill="#000000"/><text fill="#D9B8FF" font-family="Helvetica" font-size="17" lengthAdjust="spacing" textLength="162" x="230.5" y="193.5698">organizational_root</text></g><!--class resource--><g id="elem_resource"><rect codeLine="32" fill="#3D176E" height="39.7891" id="resource" rx="2.5" ry="2.5" style="stroke:#000D19;stroke-width:0.5;" width="113" x="134" y="7"/><ellipse cx="149" cy="26.8945" fill="#ADD1B2" rx="11" ry="11" style="stroke:#181818;stroke-width:1.0;"/><path d="M151.9688,32.5352 Q151.3906,32.832 150.75,32.9727 Q150.1094,33.1289 149.4063,33.1289 Q146.9063,33.1289 145.5781,31.4883 Q144.2656,29.832 144.2656,26.707 Q144.2656,23.582 145.5781,21.9258 Q146.9063,20.2695 149.4063,20.2695 Q150.1094,20.2695 150.75,20.4258 Q151.4063,20.582 151.9688,20.8789 L151.9688,23.5977 Q151.3438,23.0195 150.75,22.7539 Q150.1563,22.4727 149.5313,22.4727 Q148.1875,22.4727 147.5,23.5508 Q146.8125,24.6133 146.8125,26.707 Q146.8125,28.8008 147.5,29.8789 Q148.1875,30.9414 149.5313,30.9414 Q150.1563,30.9414 150.75,30.6758 Q151.3438,30.3945 151.9688,29.8164 L151.9688,32.5352 Z " fill="#000000"/><text fill="#D9B8FF" font-family="Helvetica" font-size="17" lengthAdjust="spacing" textLength="71" x="168" y="32.7798">resource</text></g><!--reverse link aws_resource to aws_organizational_root--><g id="link_aws_resource_aws_organizational_root"><path codeLine="35" d="M107.2825,222.8116 C127.6525,253.3316 157.27,297.69 177.67,328.25 " fill="none" id="aws_resource-backto-aws_organizational_root" style="stroke:#FFAF37;stroke-width:2.0;"/><polygon fill="none" points="97.29,207.84,102.292,226.1425,112.2731,219.4808,97.29,207.84" style="stroke:#FFAF37;stroke-width:2.0;"/></g><!--reverse link organizational_root to aws_organizational_root--><g id="link_organizational_root_aws_organizational_root"><path codeLine="36" d="M275.3463,222.7232 C254.5863,253.2432 224.36,297.69 203.57,328.25 " fill="none" id="organizational_root-backto-aws_organizational_root" style="stroke:#FFAF37;stroke-width:2.0;"/><polygon fill="none" points="285.47,207.84,270.3852,219.3487,280.3074,226.0978,285.47,207.84" style="stroke:#FFAF37;stroke-width:2.0;"/></g><!--reverse link resource to aws_resource--><g id="link_resource_aws_resource"><path codeLine="37" d="M167.7175,62.0216 C147.3475,92.5416 117.73,136.9 97.33,167.46 " fill="none" id="resource-backto-aws_resource" style="stroke:#FFAF37;stroke-width:2.0;"/><polygon fill="none" points="177.71,47.05,162.7269,58.6908,172.708,65.3525,177.71,47.05" style="stroke:#FFAF37;stroke-width:2.0;"/></g><!--reverse link resource to organizational_root--><g id="link_resource_organizational_root"><path codeLine="38" d="M213.6537,61.9332 C234.4137,92.4532 264.64,136.9 285.43,167.46 " fill="none" id="resource-backto-organizational_root" style="stroke:#FFAF37;stroke-width:2.0;"/><polygon fill="none" points="203.53,47.05,208.6926,65.3078,218.6148,58.5587,203.53,47.05" style="stroke:#FFAF37;stroke-width:2.0;"/></g><!--SRC=[XP11Jy9048Nl_HMRS6xIIXH8l229qGinufrCkxDbqtQ7p0useFvtHSGiRO7hUz-yUJChgr5XlPQjgh7Ea7taI-lMm52hAJCrCwg8rS0OCCDHstma9rU1ETIedh1wHx4vj8ctbSrBXzwhcy1wWBmic3PE7-A5mVaV2vq4rAm2xwSYRBEDO516JxAnCMso7JeOwdHqXnsCM2F_8KcIw7JIHgwkkdZtFx6mErHf-BGv2NPgTbRyKXTRxecWPEVGet-sumjeRLsXRWFjzT297VA9lbY1fcPF6wXykCOBCf9irpZhN8MJiJQZNlZv71pb-zSfQFoIk01dTo2M75HB9XBr4KLV0SBeQSCvXlgLiTEHav3xppYEpwsE-d8lJ_G47wMsrpV-3G00]--></g></svg>

<svg xmlns="http://www.w3.org/2000/svg" width="407" height="374" viewBox="0 0 407 374"><rect width="246" height="39.789" x="67.5" y="328.58" fill="#3D176E" rx="2.5" ry="2.5" style="stroke:#000d19;stroke-width:.5"/><circle cx="82.5" cy="348.474" r="11" fill="#ADD1B2" style="stroke:#181818;stroke-width:1"/><path d="M85.469 354.115q-.578.297-1.219.438-.64.156-1.344.156-2.5 0-3.828-1.64-1.312-1.657-1.312-4.782t1.312-4.781q1.328-1.656 3.828-1.656.703 0 1.344.156.656.156 1.219.453v2.719q-.625-.579-1.219-.844-.594-.281-1.219-.281-1.344 0-2.031 1.078-.687 1.062-.687 3.156t.687 3.172q.688 1.062 2.031 1.062.625 0 1.219-.265.594-.281 1.219-.86z"/><text x="101.5" y="354.36" fill="#D9B8FF" font-family="Helvetica" font-size="17" textLength="204">aws_organizational_root</text><rect width="155" height="39.789" x="7" y="167.79" fill="#3D176E" rx="2.5" ry="2.5" style="stroke:#000d19;stroke-width:.5"/><circle cx="22" cy="187.685" r="11" fill="#ADD1B2" style="stroke:#181818;stroke-width:1"/><path d="M24.969 193.325q-.578.297-1.219.438-.64.156-1.344.156-2.5 0-3.828-1.64-1.312-1.657-1.312-4.782t1.312-4.781q1.328-1.656 3.828-1.656.703 0 1.344.156.656.156 1.219.453v2.719q-.625-.578-1.219-.844-.594-.281-1.219-.281-1.343 0-2.031 1.078-.687 1.062-.687 3.156t.687 3.172q.688 1.062 2.031 1.062.625 0 1.219-.265.594-.281 1.219-.86z"/><text x="41" y="193.57" fill="#D9B8FF" font-family="Helvetica" font-size="17" textLength="113">aws_resource</text><rect width="204" height="39.789" x="196.5" y="167.79" fill="#3D176E" rx="2.5" ry="2.5" style="stroke:#000d19;stroke-width:.5"/><circle cx="211.5" cy="187.685" r="11" fill="#ADD1B2" style="stroke:#181818;stroke-width:1"/><path d="M214.469 193.325q-.578.297-1.219.438-.64.156-1.344.156-2.5 0-3.828-1.64-1.312-1.657-1.312-4.782t1.312-4.781q1.328-1.656 3.828-1.656.703 0 1.344.156.656.156 1.219.453v2.719q-.625-.578-1.219-.844-.594-.281-1.219-.281-1.344 0-2.031 1.078-.687 1.062-.687 3.156t.687 3.172q.688 1.062 2.031 1.062.625 0 1.219-.265.594-.281 1.219-.86z"/><text x="230.5" y="193.57" fill="#D9B8FF" font-family="Helvetica" font-size="17" textLength="162">organizational_root</text><rect width="113" height="39.789" x="134" y="7" fill="#3D176E" rx="2.5" ry="2.5" style="stroke:#000d19;stroke-width:.5"/><circle cx="149" cy="26.895" r="11" fill="#ADD1B2" style="stroke:#181818;stroke-width:1"/><path d="M151.969 32.535q-.578.297-1.219.438-.64.156-1.344.156-2.5 0-3.828-1.64-1.312-1.657-1.312-4.782t1.312-4.781q1.328-1.656 3.828-1.656.703 0 1.344.156.656.156 1.219.453v2.719q-.625-.578-1.219-.844-.594-.281-1.219-.281-1.344 0-2.031 1.078-.687 1.062-.687 3.156t.687 3.172q.688 1.062 2.031 1.062.625 0 1.219-.265.594-.281 1.219-.86z"/><text x="168" y="32.78" fill="#D9B8FF" font-family="Helvetica" font-size="17" textLength="71">resource</text><path fill="none" d="M107.283 222.812c20.37 30.52 49.987 74.878 70.387 105.438M97.29 207.84l5.002 18.303 9.981-6.662z" style="stroke:#ffaf37;stroke-width:2"/><g fill="none"><path d="M275.346 222.723c-20.76 30.52-50.986 74.967-71.776 105.527" style="stroke:#ffaf37;stroke-width:2"/><path d="m285.47 207.84-15.085 11.509 9.922 6.749z" style="stroke:#ffaf37;stroke-width:2"/></g><path fill="none" d="M167.718 62.022C147.348 92.542 117.73 136.9 97.33 167.46m80.38-120.41-14.983 11.64 9.981 6.663z" style="stroke:#ffaf37;stroke-width:2"/><g fill="none"><path d="M213.654 61.933c20.76 30.52 50.986 74.967 71.776 105.527" style="stroke:#ffaf37;stroke-width:2"/><path d="m203.53 47.05 5.163 18.258 9.922-6.75z" style="stroke:#ffaf37;stroke-width:2"/></g></svg>
